src/lib/packages/icons/src/assets/filled/clipboard-star.svg

<svg width="24" height="24" viewBox="0 0 24 24" fill="none" xmlns="http://www.w3.org/2000/svg">
<path d="M8 5.5V4.5C8 3.5 8.5 3 9.5 3H14.5C15.5 3 16 3.5 16 4.5V5.5C16 6.5 15.5 7 14.5 7H9.5C8.5 7 8 6.5 8 5.5ZM20 8V18C20 20 19 21 17 21H7C5 21 4 20 4 18V8C4 6.258 4.75189 5.27701 6.26489 5.05701C6.38589 5.03901 6.5 5.13899 6.5 5.26099V5.49902C6.5 7.31902 7.68 8.49902 9.5 8.49902H14.5C16.32 8.49902 17.5 7.31902 17.5 5.49902V5.26099C17.5 5.13899 17.6151 5.03901 17.7351 5.05701C19.2481 5.27701 20 6.258 20 8ZM15.166 12.682L13.4231 12.434C13.2961 12.416 13.1859 12.338 13.1299 12.225L12.375 10.727C12.222 10.423 11.78 10.423 11.627 10.727L10.8721 12.225C10.8151 12.338 10.7051 12.416 10.5791 12.434L8.83594 12.682C8.51594 12.727 8.38912 13.113 8.62012 13.334L9.87988 14.536C9.97188 14.624 10.0139 14.751 9.99194 14.875L9.7041 16.519C9.6451 16.853 10.0031 17.108 10.3091 16.951L11.8201 16.174C11.9341 16.116 12.0689 16.116 12.1819 16.174L13.6941 16.952C14.0001 17.109 14.3571 16.855 14.2981 16.521L14.01 14.875C13.988 14.751 14.0301 14.624 14.1221 14.536L15.3821 13.334C15.6131 13.113 15.486 12.728 15.166 12.682Z" fill="currentColor"/>
</svg>

<svg xmlns="http://www.w3.org/2000/svg" width="24" height="24" fill="none"><path fill="currentColor" d="M8 5.5v-1C8 3.5 8.5 3 9.5 3h5c1 0 1.5.5 1.5 1.5v1c0 1-.5 1.5-1.5 1.5h-5C8.5 7 8 6.5 8 5.5ZM20 8v10c0 2-1 3-3 3H7c-2 0-3-1-3-3V8c0-1.742.752-2.723 2.265-2.943a.21.21 0 0 1 .235.204v.238c0 1.82 1.18 3 3 3h5c1.82 0 3-1.18 3-3v-.238a.21.21 0 0 1 .235-.204C19.248 5.277 20 6.258 20 8Zm-4.834 4.682-1.743-.248a.387.387 0 0 1-.293-.209l-.755-1.498a.42.42 0 0 0-.748 0l-.755 1.498a.39.39 0 0 1-.293.209l-1.743.248a.38.38 0 0 0-.216.652l1.26 1.202a.378.378 0 0 1 .112.339l-.288 1.644c-.059.334.3.589.605.432l1.511-.777a.398.398 0 0 1 .362 0l1.512.778c.306.157.663-.097.604-.431l-.288-1.646a.378.378 0 0 1 .112-.339l1.26-1.202a.38.38 0 0 0-.216-.652Z"/></svg>
